X:1
T:The Wonderful Jesus
T:Charles Hutchinson Gabriel
T:The Wonderful Jesus
T:Public Domain
T:Public Domain
C:Charles Hutchinson Gabriel
Z:Public Domain
%%score ( 1 2 ) ( 3 4 )
L:1/8
M:6/4
K:Bb
V:1 treble 
V:2 treble 
V:3 bass 
V:4 bass 
V:1
 [DF][DF] | [DB]3 [EA] [FB]2 [Ec]2 [EB]2 [EG]2 | [DF]6 [B,D]4 [CE]2 | %3
w: 1.~’Tis a|won- der- ful, won- der- ful|Je- sus That|
w: 2.~Bow, ye|na- tions, be- fore His bright|scep- ter; O|
w: 3.~’Tis a|won- der- ful, won- der- ful|Je- sus, Who|
 [DF]2 [DG]2 [DA]2 [DB]2 [Dc]2 [DB]2 | [EA]6- [EA]4 FF | [Ec]3 [E=B] [Ec]2 [EA]2 [EG]2 [EF]2 | %6
w: came to the earth Christ- mas|Day, * Bring- ing|of peace and re- joic- ing,|
w: sing, all ye isles of the|sea; * For de-|ance comes with the Sav- ior,|
w: claims all our lives for His|own; * Let Him|our hearts ev- er glor- ious;|
 [DF]6 [DB]4 [Fd]2 | [Fc]3 [=EB] [EA]2 [EG]2 [EA]2 [EG]2 | F6- F4 ||"^Refrain" F2 | %10
w: To drive all|the sha- dows a- way. *|||
w: Whose king- dom|e- ter- nal shall be. A|won- *|ful,|
w: Re- ceive Him|and crown Him a- lone. *|||
 [Fd]3 [=E^c] [Fd]2 [G=e]2 [Fd]2 [Ec]2 | [Fd]6 [DB]4 [FB]2 | %12
w: ||
w: der- ful Je- sus, Whose love|song the bright|
w: ||
 [GB]2 [^FA]2 [GB]2 [Ge]2 [GB]2 [_Gc]2 | [Fd]6- [Fd]4 [DF]2 | [EG]2 [FA]2 [GB]2 [Ac]2 [GB]2 [EG]2 | %15
w: |||
w: an- gels sing; A won- der-|ful, * won-|der- ful Je- sus, Thank God,|
w: |||
 [DF]6 [DB]4 [Fd]2 | [=Ec]2 [EG]2 [EB]2 [_EA]2 [EG]2 [EA]2 | [DB]6- [DB]4 |] %18
w: |||
w: we can call|Him our king! * * *||
w: |||
V:2
 x2 | x12 | x12 | x12 | x10 FF | x12 | x12 | x12 | F6- F4 || F2 | x12 | x12 | x12 | x12 | x12 | %15
w: ||||sun- light|||||||||||
w: ||||liv- er-||||der- *|won-||||||
w: ||||reign in|||||||||||
 x12 | x12 | x10 |] %18
w: |||
w: |||
w: |||
V:3
 [B,,B,][B,,B,] | [B,,F,]3 [C,F,] [D,B,]2 [E,G,]2 [E,G,]2 [E,B,]2 | [B,,B,]6 [B,,F,]4 [B,,F,]2 | %3
 [B,,B,]2 [B,,B,]2 [B,,B,]2 [B,,B,]2 [B,,B,]2 [B,,B,]2 | [F,C]6- [F,C]4 [F,A,][F,A,] | %5
 [F,A,]3 [F,^G,] [F,A,]2 [F,C]2 [F,B,]2 [F,A,]2 | [B,,B,]6 [B,,B,]4 [B,,B,]2 | %7
 [C,A,]3 [C,G,] [C,D]2 [C,C]2 [C,D]2 [C,C]2 | [F,A,]6- [F,A,]4 || [F,A,]2 | %10
 [B,,B,]3 [B,,B,] [B,,B,]2 [B,,B,]2 [B,,B,]2 [B,,B,]2 | [B,,B,]6 [B,,B,]4 [D,B,]2 | %12
 [E,B,]2 [E,B,]2 [E,B,]2 [E,B,]2 [E,B,]2 [E,B,]2 | [B,,B,]6- [B,,B,]4 [B,,B,]2 | %14
 [E,B,]2 [E,B,]2 [E,B,]2 [E,E]2 [E,E]2 [E,B,]2 | [B,,B,]6 [B,,B,]4 [B,,B,]2 | %16
 [C,B,]2 [C,B,]2 [C,C]2 [F,C]2 [F,C]2 F,2 | [B,,F,]6- [B,,F,]4 |] %18
V:4
 x2 | x12 | x12 | x12 | x12 | x12 | x12 | x12 | x10 || x2 | x12 | x12 | x12 | x12 | x12 | x12 | %16
 x10 F,2 | x10 |] %18

